packages/core/src/svgs/tokens/mono/MIMATIC.svg

<svg width="24" height="24" viewBox="0 0 24 24" fill="none" xmlns="http://www.w3.org/2000/svg">
<path d="M9.25403 7.46666C10.3273 7.41404 10.9007 7.54557 11.732 8.24004C11.9109 8.38736 12.0214 8.60832 12.0582 8.9082C12.0582 8.94503 12.0582 8.98186 12.0476 9.01868C12.0379 9.05396 12.0199 9.08642 11.9951 9.11339C11.974 9.13771 11.9467 9.15588 11.9162 9.16599C11.8854 9.17569 11.8523 9.17569 11.8214 9.16599C11.0174 8.89056 10.1722 8.7553 9.32243 8.76615C8.53326 8.78194 8.40174 7.50349 9.25403 7.46666ZM9.02781 9.75526H9.01728V9.74999C9.01405 9.74888 9.01129 9.74667 9.00939 9.74385C9.0075 9.74102 9.00656 9.73759 9.00676 9.73415C9.01728 9.57112 9.14882 9.41853 9.36978 9.31331C9.59074 9.20809 9.89592 9.15547 10.201 9.17126H10.2484C10.5535 9.18703 10.8482 9.2607 11.0586 9.38171C11.269 9.50797 11.39 9.67105 11.3795 9.8342C11.3809 9.83653 11.3817 9.83923 11.3817 9.84206C11.3817 9.84488 11.3809 9.84758 11.3795 9.84991C11.3771 9.85139 11.3744 9.852 11.3716 9.852C11.3689 9.852 11.3661 9.85139 11.3638 9.84991L9.02781 9.75526Z" fill="white"/>
<path fill-rule="evenodd" clip-rule="evenodd" d="M17.4718 14.3795C17.5784 14.6372 17.7515 14.8621 17.9732 15.0312C18.195 15.2003 18.4577 15.3077 18.7344 15.3422C18.8292 15.1897 18.7187 15.0476 18.6555 14.9055C18.2347 13.9376 17.7348 12.7695 18.2084 11.7542C18.2347 11.7015 18.2662 11.6911 18.3136 11.7226C18.545 11.8804 18.7924 11.954 19.0502 11.9489C19.1711 11.9489 19.229 11.8016 19.1448 11.7173C18.7344 11.3296 18.4317 10.842 18.2662 10.3021C18.1663 9.94961 18.1505 9.53396 18.1347 9.10781C18.1031 8.24499 18.0662 7.34008 17.335 6.85605C16.893 6.55617 16.6511 5.92483 16.4775 5.43555C15.441 2.49984 12.3948 1.46341 9.49067 2.25784C7.07057 2.92074 4.95559 5.87748 4.77672 8.2976C4.74515 8.78162 5.54484 9.02889 5.266 9.5655C5.21339 9.68126 5.15025 9.79174 5.09239 9.89695C4.8188 10.3968 4.59784 10.8124 4.63993 11.5438C4.76619 12.2592 5.21866 12.8853 5.2923 13.6008C5.33439 14.0269 5.31861 14.4742 5.25022 14.9424C4.9135 17.2468 6.04991 19.9405 7.50198 21.6766C7.6072 21.8029 7.65981 21.7819 7.65981 21.624L7.67033 20.8507C7.62824 20.6191 7.64403 20.414 7.72295 20.2299C7.74399 20.1825 7.7703 20.1825 7.79659 20.2299C8.08274 20.7707 8.52192 21.2154 9.05927 21.5083C10.2821 22.0589 11.6624 22.1504 12.9472 21.7661C12.9998 21.7134 12.9998 21.6766 12.9577 21.6503C12.5286 21.3935 12.1861 21.0142 11.9739 20.5613L11.8055 20.1615C11.7898 20.1141 11.8055 20.0983 11.8529 20.1088L12.0633 20.1772C12.6157 20.3403 13.184 20.5139 13.7258 20.2561C13.187 19.6477 12.7756 18.9376 12.5158 18.1675C12.4386 17.8818 12.4342 17.5814 12.5032 17.2938C12.572 17.0061 12.7121 16.7403 12.9103 16.5207C13.1893 16.1841 14.0257 14.7529 14.4467 14.7267C14.615 14.7161 14.7307 14.8056 14.7991 14.995C15.3253 16.5524 16.2197 18.1779 17.5349 19.204C18.0979 19.5564 18.9975 19.7511 19.2974 18.9409C19.5131 18.3569 19.1764 17.7466 18.8292 17.2731C18.8186 17.2597 18.8045 17.2496 18.7884 17.244C18.7725 17.2383 18.755 17.2373 18.7385 17.2413C18.7219 17.2451 18.7068 17.2537 18.6949 17.2658C18.683 17.278 18.6749 17.2932 18.6713 17.3099C18.6239 17.6045 18.3609 18.3516 17.9769 18.3621C16.872 18.3832 17.2877 15.0634 17.3929 14.3899C17.4086 14.2847 17.435 14.2847 17.477 14.3795H17.4718ZM15.4463 6.69822C15.6935 3.54154 12.479 2.48932 9.9063 3.09961C9.41176 3.21536 8.89091 3.46789 8.33849 3.86774C8.24906 3.93088 8.14383 4.07819 8.03335 4.3202C8.00704 4.36754 8.02282 4.39911 8.07017 4.41489C8.12279 4.43068 8.1754 4.43068 8.23854 4.40964L8.84882 4.42016C8.90143 4.42016 8.92773 4.44647 8.93827 4.49907C8.94352 4.54116 8.92773 4.59378 8.88039 4.6569C8.61734 4.79896 8.31218 4.86735 7.95969 4.86735C7.8229 4.86209 7.57037 5.11989 7.76503 5.20406C7.77818 5.21046 7.79252 5.21404 7.80713 5.21458H8.79621L9.81165 5.2251C9.86947 5.2251 9.89574 5.25668 9.88003 5.31455C9.86947 5.36716 9.82737 5.43028 9.77482 5.50394C9.30128 5.6723 8.70677 5.75121 7.986 5.74069C7.84921 5.74069 7.75451 5.81962 7.70716 5.98797C7.81765 6.11424 8.07017 6.16684 8.45424 6.15107C9.19923 6.12092 9.94313 6.06828 10.685 5.99323C10.7902 5.98797 11.1584 5.95641 11.1584 6.13001C11.1584 6.18263 11.1375 6.25103 11.1058 6.34046C11.1269 6.35625 11.1375 6.37729 11.1479 6.39308C11.2268 6.50883 11.1584 6.61931 10.9375 6.71926C10.1851 7.05598 8.96456 7.05598 8.1491 6.98232C7.87025 6.96128 7.75451 7.23485 7.59141 7.43477C7.48619 8.59222 7.61772 9.55506 7.0653 10.6546C6.87064 11.0333 6.82855 11.3912 6.85485 11.8278C6.88116 12.154 7.11792 12.2592 7.41779 12.2329C7.90182 12.1961 8.42793 12.1856 8.99614 12.2014C9.04348 12.2014 9.11187 12.154 9.20132 12.0541C8.99087 11.9278 8.77517 11.8278 8.53842 11.7542C8.33324 11.6911 8.23327 11.5332 8.38058 11.3332C8.31745 11.2491 8.32271 11.107 8.44372 11.086C9.20658 10.9492 9.82736 11.1387 10.3061 11.6594C10.7218 12.1119 10.9901 12.6854 11.1216 13.3693C11.2268 13.9323 11.3689 14.4689 11.5162 15.0056C11.5845 15.2423 11.6846 15.8473 12.0791 15.6C13.0419 15.0003 13.8048 13.8586 14.173 12.7801C14.3625 12.2277 14.5098 11.7331 14.615 11.307C14.815 10.4862 13.7417 10.1759 13.81 9.49188C13.8522 9.01837 13.9364 8.53961 14.0678 8.06085C14.2414 7.40847 14.8675 6.96653 15.4463 6.70348V6.69822ZM10.2904 14.8319C10.1733 15.016 10.0002 15.1578 9.79667 15.2364C9.59314 15.3151 9.36968 15.3262 9.15922 15.2685C9.03822 15.2423 8.89617 15.1055 8.73834 14.8583C8.61734 14.6689 8.4858 14.2426 8.22275 14.2005C8.06492 14.1743 7.90708 14.1901 7.74924 14.2426C7.35992 14.3795 7.55985 15.1002 7.02322 15.1739C6.8496 15.2002 6.76542 14.9108 6.76016 14.7793C6.67617 14.4356 6.71914 14.0731 6.88116 13.7586C6.90747 13.7061 6.9443 13.6692 6.99691 13.6481C7.67559 13.3431 8.62786 13.3852 9.41702 13.4483C9.58541 13.4588 9.72216 13.5219 9.83792 13.6324C10.1799 13.9796 10.3324 14.3847 10.2904 14.8319Z" fill="white"/>
</svg>

<svg xmlns="http://www.w3.org/2000/svg" width="24" height="24" fill="none" viewBox="0 0 24 24">
    <path fill="#fff" d="M9.254 7.467c1.073-.053 1.647.079 2.478.773q.27.22.326.668c0 .037 0 .074-.01.11a.23.23 0 0 1-.053.095.2.2 0 0 1-.079.053.16.16 0 0 1-.095 0 7.4 7.4 0 0 0-2.499-.4c-.789.016-.92-1.263-.068-1.3m-.226 2.288h-.01V9.75a.02.02 0 0 1-.011-.016c.01-.163.142-.315.363-.42a1.8 1.8 0 0 1 .831-.143h.047c.306.016.6.09.81.21.211.127.332.29.322.453a.02.02 0 0 1 0 .016l-.008.002q-.005 0-.008-.002z"/>
    <path fill="#fff" fill-rule="evenodd" d="M17.472 14.38a1.58 1.58 0 0 0 1.262.962c.095-.152-.015-.294-.079-.437-.42-.967-.92-2.135-.447-3.15.027-.054.058-.064.106-.032q.348.235.736.226c.121 0 .179-.147.095-.232a3.26 3.26 0 0 1-.879-1.415c-.1-.352-.115-.768-.131-1.194-.032-.863-.069-1.768-.8-2.252-.442-.3-.684-.931-.858-1.42-1.036-2.936-4.082-3.973-6.986-3.178-2.42.663-4.535 3.62-4.714 6.04-.032.484.768.73.489 1.268-.053.115-.116.226-.174.33-.273.5-.494.916-.452 1.648.126.715.579 1.341.652 2.057q.062.639-.042 1.341c-.336 2.305.8 4.999 2.252 6.735.105.126.158.105.158-.053l.01-.773a1.06 1.06 0 0 1 .053-.621q.032-.07.074 0c.286.54.725.985 1.262 1.278a5.58 5.58 0 0 0 3.888.258c.053-.053.053-.09.01-.116a2.5 2.5 0 0 1-.983-1.089l-.168-.4q-.024-.07.047-.052l.21.068c.553.163 1.121.337 1.663.08a6.1 6.1 0 0 1-1.21-2.09 1.77 1.77 0 0 1 .394-1.646c.28-.337 1.116-1.768 1.537-1.794q.251-.015.352.268c.526 1.557 1.42 3.183 2.736 4.209.563.352 1.462.547 1.762-.263.216-.584-.12-1.194-.468-1.668a.09.09 0 0 0-.158.037c-.047.295-.31 1.042-.694 1.052-1.105.021-.69-3.299-.584-3.972.016-.105.042-.105.084-.01zm-2.026-7.682c.248-3.156-2.967-4.209-5.54-3.598-.494.115-1.015.368-1.568.768-.089.063-.194.21-.305.452-.026.048-.01.08.037.095a.27.27 0 0 0 .169-.005l.61.01c.052 0 .079.026.09.08.005.041-.011.094-.059.157q-.393.212-.92.21c-.137-.005-.39.253-.195.337q.02.01.042.01h.99l1.015.011c.057 0 .084.032.068.09a.6.6 0 0 1-.105.189q-.71.252-1.789.237c-.137 0-.231.079-.279.247.11.126.363.179.747.163q1.118-.045 2.231-.158c.105-.005.473-.037.473.137 0 .053-.02.121-.052.21.02.016.031.037.042.053q.12.175-.21.326c-.753.337-1.973.337-2.789.263-.279-.02-.394.253-.558.453-.105 1.157.027 2.12-.526 3.22-.194.378-.236.736-.21 1.173.026.326.263.431.563.405q.726-.055 1.578-.032.071.002.205-.147a3 3 0 0 0-.663-.3c-.205-.063-.305-.22-.157-.42-.064-.085-.058-.227.063-.248q1.144-.206 1.862.573c.416.453.684 1.026.816 1.71.105.563.247 1.1.394 1.637.069.236.169.841.563.594.963-.6 1.726-1.741 2.094-2.82.19-.552.337-1.047.442-1.473.2-.82-.873-1.131-.805-1.815a8 8 0 0 1 .258-1.431c.173-.653.8-1.094 1.378-1.358zm-5.156 8.134a1.02 1.02 0 0 1-1.13.436q-.184-.04-.422-.41c-.12-.19-.252-.615-.515-.658a1 1 0 0 0-.474.043c-.39.136-.19.857-.726.93-.173.027-.258-.262-.263-.394a1.47 1.47 0 0 1 .121-1.02.22.22 0 0 1 .116-.11c.679-.306 1.63-.264 2.42-.2.168.01.305.073.42.183.343.348.495.753.453 1.2" clip-rule="evenodd"/>
</svg>
